packages/core/src/svgs/tokens/mono/CFX.svg

<svg width="24" height="24" viewBox="0 0 24 24" fill="none" xmlns="http://www.w3.org/2000/svg">
<path d="M12.0105 2L20.421 10.0632L20.4052 13.921L11.9736 5.83683L3.60517 13.8632L3.57886 10.0842L12.0105 2ZM12.0105 18.2631L16.3788 14.0789L18.3157 15.9368L11.9893 22L5.68411 15.9579L12.0105 9.89467L13.9472 11.7526L9.58415 15.9368L12.0157 18.2631H12.0105Z" fill="white"/>
</svg>

<svg xmlns="http://www.w3.org/2000/svg" width="24" height="24" fill="none" viewBox="0 0 24 24">
    <path fill="#fff" d="m12.01 2 8.411 8.063-.016 3.858-8.431-8.084-8.369 8.026-.026-3.779zm0 16.263 4.369-4.184 1.937 1.858L11.989 22l-6.305-6.042 6.327-6.063 1.936 1.858-4.363 4.184 2.432 2.326z"/>
</svg>
